Icons/com_snapchat_android.svg

<svg viewBox="0 0 48 48" xmlns:xlink="http://www.w3.org/1999/xlink">
 <defs>
  <linearGradient id="0">
   <stop stop-opacity="0"/>
   <stop offset="1"/>
  </linearGradient>
  <linearGradient xlink:href="#0" id="1" gradientUnits="userSpaceOnUse" gradientTransform="translate(4e-7,-48)" y1="47" x2="0" y2="1"/>
  <clipPath id="2">
   <g transform="translate(0,-1004.3622)">
    <rect rx="4" y="1005.36" x="1" height="46" width="46" fill="#1890d0"/>
   </g>
  </clipPath>
  <clipPath id="3">
   <g transform="translate(0,-1004.3622)">
    <rect rx="4" y="1005.36" x="1" height="46" width="46" fill="#1890d0"/>
   </g>
  </clipPath>
  <path id="4" d="M 23.867188 12.5 C 21.269531 12.539062 18.988281 13.808594 17.898438 15.945312 L 17.457031 16.824219 L 17.445312 19.441406 C 17.4375 21.355469 17.386719 22.117188 17.265625 22.261719 C 16.988281 22.582031 16.253906 22.644531 15.523438 22.414062 C 14.703125 22.15625 14.390625 22.148438 14.175781 22.398438 C 13.953125 22.660156 14.152344 22.878906 14.878906 23.175781 C 16.421875 23.804688 16.863281 24.054688 17.054688 24.410156 C 17.363281 24.988281 17.292969 25.527344 16.789062 26.460938 C 15.699219 28.460938 13.957031 29.957031 12.070312 30.5 C 11.757812 30.59375 11.5 30.710938 11.5 30.769531 C 11.5 30.957031 12.210938 31.234375 13.421875 31.503906 C 14.074219 31.652344 14.640625 31.808594 14.679688 31.847656 C 14.71875 31.882812 14.859375 32.222656 14.992188 32.597656 L 15.230469 33.277344 L 15.875 33.214844 C 16.796875 33.121094 18.042969 33.140625 18.621094 33.253906 C 18.890625 33.308594 19.65625 33.699219 20.316406 34.121094 C 21.773438 35.046875 22.179688 35.25 22.839844 35.410156 C 23.597656 35.597656 25.175781 35.476562 25.863281 35.179688 C 26.195312 35.039062 26.925781 34.625 27.492188 34.253906 C 28.058594 33.882812 28.714844 33.503906 28.953125 33.410156 C 29.597656 33.148438 30.875 33.050781 31.777344 33.195312 C 32.710938 33.34375 32.773438 33.304688 33.050781 32.464844 C 33.269531 31.796875 33.191406 31.84375 35.015625 31.390625 C 35.621094 31.242188 36.21875 31.042969 36.351562 30.945312 C 36.574219 30.789062 36.5625 30.765625 36.191406 30.613281 C 34.078125 29.769531 33.183594 29.164062 32.1875 27.914062 C 30.757812 26.113281 30.410156 24.867188 31.144531 24.160156 C 31.347656 23.964844 31.949219 23.644531 32.480469 23.445312 C 33.015625 23.25 33.585938 22.984375 33.75 22.855469 C 34.003906 22.65625 34.019531 22.59375 33.867188 22.414062 C 33.644531 22.152344 33.175781 22.152344 32.316406 22.40625 C 31.605469 22.617188 31.113281 22.566406 30.753906 22.253906 C 30.5625 22.085938 30.546875 21.792969 30.609375 19.898438 C 30.691406 17.242188 30.53125 16.480469 29.621094 15.179688 C 28.703125 13.871094 27.363281 13.015625 25.707031 12.675781 C 25.082031 12.546875 24.46875 12.492188 23.867188 12.5 Z M 23.867188 12.5 "/>
 </defs>
 <g>
  <g transform="translate(0,-1004.3622)">
   <path d="m 5,1006.3622 c -2.216,0 -4,1.784 -4,4 l 0,37.25 c 0,2.216 1.784,4 4,4 l 38,0 c 2.216,0 4,-1.784 4,-4 l 0,-37.25 c 0,-2.216 -1.784,-4 -4,-4 l -38,0 z m -4,41.5 0,0.5 c 0,2.216 1.784,4 4,4 l 38,0 c 2.216,0 4,-1.784 4,-4 l 0,-0.5 c 0,2.216 -1.784,4 -4,4 l -38,0 c -2.216,0 -4,-1.784 -4,-4 z" opacity="0.02"/>
   <path d="m 1,1047.6122 0,0.25 c 0,2.216 1.784,4 4,4 l 38,0 c 2.216,0 4,-1.784 4,-4 l 0,-0.25 c 0,2.216 -1.784,4 -4,4 l -38,0 c -2.216,0 -4,-1.784 -4,-4 z" opacity="0.05"/>
   <rect width="46" height="46" x="1" y="1005.61" rx="4" opacity="0.1"/>
  </g>
 </g>
 <g>
  <g transform="translate(0,-1004.3622)">
   <rect rx="4" y="1005.36" x="1" height="46" width="46" fill="#f4ee48"/>
  </g>
 </g>
 <g>
  <rect transform="scale(1,-1)" width="46" height="46" x="1" y="-46.998" rx="4" opacity="0.1" fill="url(#1)"/>
 </g>
 <g>
  <g clip-path="url(#2)">
   <g opacity="0.1">
    <g>
     <use stroke="#2d2d2d" stroke-width="0.999" xlink:href="#4"/>
     <use xlink:href="#4"/>
    </g>
   </g>
  </g>
 </g>
 <g>
  <g clip-path="url(#3)">
   <g transform="translate(0,-1)">
    <g>
     <use fill="none" stroke="#2d2d2d" stroke-width="0.999" xlink:href="#4"/>
     <use fill="#f9f9f9" xlink:href="#4"/>
    </g>
   </g>
  </g>
 </g>
 <g>
  <g transform="translate(0,-1004.3622)">
   <path d="m 1,1043.3622 0,4 c 0,2.216 1.784,4 4,4 l 38,0 c 2.216,0 4,-1.784 4,-4 l 0,-4 c 0,2.216 -1.784,4 -4,4 l -38,0 c -2.216,0 -4,-1.784 -4,-4 z" opacity="0.1"/>
  </g>
 </g>
</svg>

<svg viewBox="0 0 48 48" xmlns:xlink="http://www.w3.org/1999/xlink"><defs><linearGradient id="linearGradient3764" x1="1" x2="47" gradientUnits="userSpaceOnUse" gradientTransform="translate(-48.000001,0.00221467)"><stop stop-color="#f3ec35" stop-opacity="1"/><stop offset="1" stop-color="#f4ee48" stop-opacity="1"/></linearGradient><clipPath id="clipPath-604632496"><g transform="translate(0,-1004.3622)"><rect rx="4" y="1005.36" x="1" height="46" width="46" fill="#1890d0"/></g></clipPath><clipPath id="clipPath-618881461"><g transform="translate(0,-1004.3622)"><rect rx="4" y="1005.36" x="1" height="46" width="46" fill="#1890d0"/></g></clipPath><path id="SVGCleanerId_0" d="m 23.867 12.5 c -2.598 0.039 -4.879 1.309 -5.969 3.445 l -0.441 0.879 l -0.012 2.617 c -0.008 1.914 -0.059 2.676 -0.18 2.82 c -0.277 0.32 -1.012 0.383 -1.742 0.152 c -0.82 -0.258 -1.133 -0.266 -1.348 -0.016 c -0.223 0.262 -0.023 0.48 0.703 0.777 c 1.543 0.629 1.984 0.879 2.176 1.234 c 0.309 0.578 0.238 1.117 -0.266 2.051 c -1.09 2 -2.832 3.496 -4.719 4.04 c -0.313 0.094 -0.57 0.211 -0.57 0.27 c 0 0.188 0.711 0.465 1.922 0.734 c 0.652 0.148 1.219 0.305 1.258 0.344 c 0.039 0.035 0.18 0.375 0.313 0.75 l 0.238 0.68 l 0.645 -0.063 c 0.922 -0.094 2.168 -0.074 2.746 0.039 c 0.27 0.055 1.035 0.445 1.695 0.867 c 1.457 0.926 1.863 1.129 2.523 1.289 c 0.758 0.188 2.336 0.066 3.02 -0.23 c 0.332 -0.141 1.063 -0.555 1.629 -0.926 c 0.566 -0.371 1.223 -0.75 1.461 -0.844 c 0.645 -0.262 1.922 -0.359 2.824 -0.215 c 0.934 0.148 0.996 0.109 1.273 -0.73 c 0.219 -0.668 0.141 -0.621 1.965 -1.074 c 0.605 -0.148 1.203 -0.348 1.336 -0.445 c 0.223 -0.156 0.211 -0.18 -0.16 -0.332 c -2.113 -0.844 -3.01 -1.449 -4 -2.699 c -1.43 -1.801 -1.777 -3.047 -1.043 -3.754 c 0.203 -0.195 0.805 -0.516 1.336 -0.715 c 0.535 -0.195 1.105 -0.461 1.27 -0.59 c 0.254 -0.199 0.27 -0.262 0.117 -0.441 c -0.223 -0.262 -0.691 -0.262 -1.551 -0.008 c -0.711 0.211 -1.203 0.16 -1.563 -0.152 c -0.191 -0.168 -0.207 -0.461 -0.145 -2.355 c 0.082 -2.656 -0.078 -3.418 -0.988 -4.719 c -0.918 -1.309 -2.258 -2.164 -3.914 -2.504 c -0.625 -0.129 -1.238 -0.184 -1.84 -0.176 m 0 0"/></defs><g><path d="m 1 43 l 0 0.25 c 0 2.216 1.784 4 4 4 l 38 0 c 2.216 0 4 -1.784 4 -4 l 0 -0.25 c 0 2.216 -1.784 4 -4 4 l -38 0 c -2.216 0 -4 -1.784 -4 -4 z m 0 0.5 l 0 0.5 c 0 2.216 1.784 4 4 4 l 38 0 c 2.216 0 4 -1.784 4 -4 l 0 -0.5 c 0 2.216 -1.784 4 -4 4 l -38 0 c -2.216 0 -4 -1.784 -4 -4 z" opacity="0.02"/><path d="m 1 43.25 l 0 0.25 c 0 2.216 1.784 4 4 4 l 38 0 c 2.216 0 4 -1.784 4 -4 l 0 -0.25 c 0 2.216 -1.784 4 -4 4 l -38 0 c -2.216 0 -4 -1.784 -4 -4 z" opacity="0.05"/><path d="m 1 43 l 0 0.25 c 0 2.216 1.784 4 4 4 l 38 0 c 2.216 0 4 -1.784 4 -4 l 0 -0.25 c 0 2.216 -1.784 4 -4 4 l -38 0 c -2.216 0 -4 -1.784 -4 -4 z" opacity="0.1"/></g><g><rect width="46" height="46" x="-47" y="1" rx="4" transform="matrix(0,-1,1,0,0,0)" fill="url(#linearGradient3764)" fill-opacity="1"/></g><g><g clip-path="url(#clipPath-604632496)"><g opacity="0.1"><!-- color: #f4ee48 --><g><use stroke="#2d2d2d" stroke-width="0.999" fill="#000" xlink:href="#SVGCleanerId_0"/><use fill="#000" xlink:href="#SVGCleanerId_0"/></g></g></g></g><g><g clip-path="url(#clipPath-618881461)"><g transform="translate(0,-1)"><!-- color: #f4ee48 --><g><use fill="none" stroke="#2d2d2d" stroke-width="0.999" xlink:href="#SVGCleanerId_0"/><use fill="#f9f9f9" xlink:href="#SVGCleanerId_0"/></g></g></g></g><g><g transform="translate(0,-1004.3622)"><path d="m 1 1043.36 0 4 c 0 2.216 1.784 4 4 4 l 38 0 c 2.216 0 4 -1.784 4 -4 l 0 -4 c 0 2.216 -1.784 4 -4 4 l -38 0 c -2.216 0 -4 -1.784 -4 -4 z" opacity="0.1"/></g></g></svg>
